public/img/humidity.svg

<?xml version="1.0" encoding="UTF-8"?>
<svg xmlns="http://www.w3.org/2000/svg" xmlns:xlink="http://www.w3.org/1999/xlink" width="10pt" height="10pt" viewBox="0 0 10 10" version="1.1">
<g id="surface1">
<path style=" stroke:none;fill-rule:nonzero;fill:rgb(0%,0%,0%);fill-opacity:1;" d="M 10 3.976562 C 10 2.738281 8.199219 0.667969 7.839844 0.265625 C 7.660156 0.0742188 7.363281 0.0664062 7.175781 0.246094 C 7.171875 0.25 7.164062 0.257812 7.15625 0.265625 C 6.527344 0.976562 5.960938 1.742188 5.476562 2.558594 C 5.179688 2.195312 4.953125 1.9375 4.878906 1.855469 C 4.699219 1.667969 4.402344 1.65625 4.214844 1.835938 C 4.207031 1.839844 4.203125 1.847656 4.195312 1.855469 C 3.574219 2.558594 3 3.296875 2.472656 4.074219 C 2.261719 3.722656 2.0625 3.421875 1.953125 3.265625 C 1.808594 3.058594 1.527344 3.007812 1.320312 3.148438 C 1.273438 3.179688 1.234375 3.21875 1.203125 3.265625 C 0.933594 3.679688 0 5.082031 0 5.796875 C -0.00390625 6.617188 0.621094 7.308594 1.4375 7.386719 C 1.816406 9.101562 3.515625 10.1875 5.230469 9.808594 C 6.6875 9.484375 7.726562 8.195312 7.726562 6.707031 C 7.726562 6.628906 7.71875 6.554688 7.710938 6.476562 C 9.007812 6.367188 10.003906 5.28125 10 3.976562 Z M 1.589844 6.476562 C 1.214844 6.476562 0.910156 6.171875 0.910156 5.796875 C 0.910156 5.570312 1.21875 4.960938 1.589844 4.359375 C 1.960938 4.960938 2.273438 5.570312 2.273438 5.796875 C 2.273438 6.171875 1.96875 6.476562 1.589844 6.476562 Z M 4.546875 8.976562 C 3.484375 8.972656 2.566406 8.238281 2.328125 7.203125 C 2.851562 6.929688 3.179688 6.386719 3.183594 5.796875 C 3.164062 5.539062 3.097656 5.289062 2.992188 5.058594 C 3.007812 4.957031 3.050781 4.863281 3.109375 4.78125 C 3.550781 4.109375 4.027344 3.46875 4.546875 2.855469 C 5.539062 4.03125 6.816406 5.839844 6.816406 6.707031 C 6.816406 7.960938 5.800781 8.976562 4.546875 8.976562 Z M 7.5 5.570312 L 7.445312 5.570312 C 7.082031 4.78125 6.628906 4.035156 6.101562 3.347656 C 6.109375 3.320312 6.121094 3.292969 6.136719 3.269531 C 6.519531 2.554688 6.976562 1.886719 7.5 1.269531 C 8.246094 2.179688 9.089844 3.410156 9.089844 3.976562 C 9.089844 4.855469 8.378906 5.570312 7.5 5.570312 Z M 7.5 5.570312 "/>
<path style=" stroke:none;fill-rule:nonzero;fill:rgb(0%,0%,0%);fill-opacity:1;" d="M 8.675781 3.457031 C 8.671875 3.445312 8.667969 3.4375 8.664062 3.429688 C 8.628906 3.351562 8.585938 3.269531 8.542969 3.1875 C 8.476562 3.082031 8.335938 3.050781 8.230469 3.117188 C 8.132812 3.179688 8.097656 3.300781 8.144531 3.40625 C 8.183594 3.476562 8.21875 3.546875 8.25 3.617188 C 8.292969 3.734375 8.425781 3.792969 8.542969 3.75 C 8.660156 3.703125 8.71875 3.574219 8.675781 3.457031 Z M 8.675781 3.457031 "/>
<path style=" stroke:none;fill-rule:nonzero;fill:rgb(0%,0%,0%);fill-opacity:1;" d="M 8.253906 2.714844 C 8.0625 2.4375 7.863281 2.183594 7.730469 2.015625 C 7.65625 1.914062 7.511719 1.894531 7.410156 1.96875 C 7.3125 2.042969 7.289062 2.183594 7.363281 2.285156 C 7.367188 2.292969 7.371094 2.296875 7.378906 2.304688 C 7.507812 2.460938 7.699219 2.707031 7.875 2.96875 C 7.945312 3.074219 8.085938 3.101562 8.191406 3.03125 C 8.296875 2.960938 8.324219 2.820312 8.253906 2.714844 Z M 8.253906 2.714844 "/>
<path style=" stroke:none;fill-rule:nonzero;fill:rgb(0%,0%,0%);fill-opacity:1;" d="M 5.21875 8.164062 C 5.183594 8.046875 5.058594 7.976562 4.9375 8.011719 C 4.808594 8.050781 4.679688 8.070312 4.546875 8.070312 C 4.421875 8.070312 4.316406 8.171875 4.316406 8.296875 C 4.316406 8.421875 4.421875 8.523438 4.546875 8.523438 C 4.722656 8.523438 4.898438 8.5 5.066406 8.449219 C 5.1875 8.414062 5.253906 8.285156 5.21875 8.164062 Z M 5.21875 8.164062 "/>
<path style=" stroke:none;fill-rule:nonzero;fill:rgb(0%,0%,0%);fill-opacity:1;" d="M 6.296875 6.1875 C 6.261719 6.066406 6.136719 5.996094 6.015625 6.035156 C 5.894531 6.070312 5.824219 6.195312 5.863281 6.316406 C 6.003906 6.792969 5.875 7.304688 5.53125 7.660156 C 5.441406 7.75 5.441406 7.894531 5.53125 7.980469 C 5.574219 8.019531 5.625 8.042969 5.683594 8.046875 C 5.742188 8.046875 5.800781 8.019531 5.84375 7.976562 C 6.308594 7.507812 6.484375 6.824219 6.296875 6.1875 Z M 6.296875 6.1875 "/>
</g>
</svg>

<svg xmlns="http://www.w3.org/2000/svg" width="10pt" height="10pt" viewBox="0 0 10 10"><path d="M10 3.977C10 2.738 8.2.668 7.84.266a.466.466 0 00-.664-.02l-.02.02a15.085 15.085 0 00-1.68 2.293 20.78 20.78 0 00-.597-.704.47.47 0 00-.664-.02c-.008.005-.012.013-.02.02a22.02 22.02 0 00-1.722 2.22c-.211-.352-.41-.653-.52-.81a.457.457 0 00-.75 0C.933 3.68 0 5.083 0 5.798a1.592 1.592 0 001.438 1.59 3.183 3.183 0 006.29-.68c-.001-.078-.01-.152-.017-.23A2.5 2.5 0 0010 3.977zm-8.41 2.5a.68.68 0 01-.68-.68c0-.227.309-.836.68-1.438.37.602.683 1.211.683 1.438a.68.68 0 01-.683.68zm2.957 2.5a2.285 2.285 0 01-2.219-1.774c.524-.273.852-.816.856-1.406a2.17 2.17 0 00-.192-.738.65.65 0 01.117-.278 19.73 19.73 0 011.438-1.926c.992 1.176 2.27 2.985 2.27 3.852a2.269 2.269 0 01-2.27 2.27zM7.5 5.57h-.055a11.69 11.69 0 00-1.343-2.222.282.282 0 01.035-.078c.383-.715.84-1.383 1.363-2 .746.91 1.59 2.14 1.59 2.707 0 .878-.711 1.593-1.59 1.593zm0 0"/><path d="M8.676 3.457a4.662 4.662 0 00-.133-.27.227.227 0 00-.313-.07.23.23 0 00-.085.29c.039.07.074.14.105.21a.228.228 0 00.293.133.23.23 0 00.133-.293zm-.422-.742c-.191-.277-.39-.531-.524-.7a.23.23 0 00-.32-.046.229.229 0 00-.047.316 8.87 8.87 0 01.512.684c.07.105.21.133.316.062a.227.227 0 00.063-.316zM5.219 8.164a.228.228 0 00-.282-.152 1.326 1.326 0 01-.39.058.23.23 0 00-.23.227.23.23 0 00.23.226c.176 0 .351-.023.52-.074a.229.229 0 00.152-.285zm1.078-1.976a.222.222 0 00-.281-.153.222.222 0 00-.153.281c.14.477.012.989-.332 1.344a.224.224 0 000 .32c.043.04.094.063.153.067a.232.232 0 00.16-.07c.465-.47.64-1.153.453-1.79zm0 0"/></svg>
